X:1
T:[ID 5-53a]
T:[ID 5-53a]
T:Bezeichnung standardisiert: Menuett Menuet
T:Urheber unbekannt Erstbeleg: 1773 (Datum in der schriftlichen Quelle) Datum in der hier transkribierten schriftlichen Quelle: 1776 - 1791
C:Urheber unbekannt
C:Erstbeleg: 1773 (Datum in der schriftlichen Quelle)
C:Datum in der hier transkribierten schriftlichen Quelle: 1776 - 1791
L:1/8
M:3/4
K:D
V:1 treble 
V:1
 defdge | a4 fd | bagfed | cdec A2 | defdge | a4 fd | bgfedc | d6 :: agabaf | e2 f2 g2 | agabaf | %11
 e2 f2 g2 | defdge | a4 fd | bgfedc | d6 :| %16

